X: 33201
T: Protestant Hag, The
R: jig
M: 6/8
K: Adorian
G|:Agf edc|BAG ABc|A2 e efg|dBG A2 G|
Agf edc|BAG Bcd|~c3 efg|dBG A2 G:|
|:Aaa aga|bga ged|eaa aga|bga g2 d|
eaa aga|bga ged|cde gfe|dBG A2 G:|

